src/images/footer_logo_mobile_vertical.svg

<svg width="154" height="70" viewBox="0 0 154 70" fill="none" xmlns="http://www.w3.org/2000/svg">
<rect opacity="0.5" x="65.3" y="11.6461" width="22.5" height="23.5294" rx="11.25" fill="#00CC66"/>
<path d="M60.0439 37.8663C62.5848 34.664 69.3086 27.9028 75.877 26.4763C75.0062 29.0998 73.4683 35.4536 74.2828 39.8813C75.8073 36.3686 81.5947 28.277 92.5482 24.0128C93.8527 23.1186 96.0534 19.47 94.4197 12.0296C94.2206 11.8331 92.8181 11.2091 88.8005 10.2843C88.263 10.0915 86.8508 9.41479 85.5012 8.25015C83.8142 6.79435 73.3013 9.99008 70.8844 11.8952C69.1374 11.5701 65.3638 11.4914 64.2455 13.7782C63.1272 16.0649 64.2889 17.0428 65.0096 17.2459C63.0881 18.5439 59.1962 21.4819 59 22.8498C61.2394 21.3089 66.4487 18.1774 69.3704 17.9791C68.4962 16.5841 67.6697 13.7918 71.3576 13.7817C74.6389 11.9327 81.8451 8.45028 84.4193 9.31191C85.5426 9.96106 87.8993 11.2656 88.339 11.2903C88.8887 11.3213 91.4957 11.6495 91.5229 11.9685C91.5346 12.107 91.3444 12.294 91.135 12.4997C90.862 12.7681 90.5563 13.0685 90.6232 13.3354C90.6717 13.5286 91.1752 13.8292 91.7579 14.1772C92.5977 14.6786 93.6021 15.2783 93.6462 15.7963C93.6621 15.9829 93.7076 16.1849 93.755 16.3957C93.9306 17.1763 94.1332 18.0764 92.96 18.7515C92.7901 18.8492 92.6111 18.9582 92.4259 19.0709C90.9866 19.9472 89.1767 21.049 88.4344 18.8369C88.0111 17.5754 87.9977 16.4412 87.9866 15.502C87.9757 14.5825 87.9671 13.85 87.5781 13.3681C86.7918 12.3939 84.8421 11.5244 83.3249 12.0627C82.1111 12.4933 80.5693 13.3553 79.9502 13.7324C80.7339 14.0639 82.3619 14.7051 82.6047 14.619C82.6633 14.5982 82.808 14.4885 83.0096 14.3356C83.8509 13.6975 85.685 12.3065 86.4147 13.4727C87.3193 14.9185 87.5016 15.2236 86.8986 16.403C86.7902 16.615 86.6471 16.8639 86.4912 17.1351C85.7795 18.3727 84.8007 20.0748 85.6366 20.8567C86.6555 21.8099 89.5155 22.3565 91.2819 21.0725C92.695 20.0452 93.6325 19.3072 93.9246 19.0666C93.7983 20.3372 93.1269 22.9159 91.4516 23.0666C89.3576 23.2548 82.4791 25.0789 81.5388 25.9672C81.529 24.6285 81.7123 21.5793 82.5235 20.0917C77.6296 20.7461 66.2821 25.2171 60.0439 37.8663Z" fill="white"/>
<path d="M78.7771 14.6417C77.6704 15.411 75.2104 17.7272 74.2247 20.8379C76.406 19.838 81.1983 17.9283 82.917 18.2881C81.7342 17.8587 78.9762 17.1636 77.4064 17.8191C77.3983 17.418 77.6611 16.2209 78.7771 14.6417Z" fill="white"/>
<path d="M73.1029 17.0751C73.478 16.8251 73.6419 16.4001 73.469 16.1259C73.2962 15.8516 72.852 15.832 72.4769 16.0821C72.1018 16.3321 71.9379 16.7571 72.1108 17.0314C72.2837 17.3056 72.7279 17.3252 73.1029 17.0751Z" fill="white"/>
<path d="M72.6316 20.4174C72.7923 20.6724 72.6186 21.0818 72.2435 21.3319C71.8684 21.5819 71.4341 21.5779 71.2734 21.3229C71.1126 21.068 71.2864 20.6586 71.6614 20.4085C72.0365 20.1585 72.4709 20.1625 72.6316 20.4174Z" fill="white"/>
<path d="M68.7434 21.7138C69.2453 21.3792 69.4778 20.8314 69.2627 20.4902C69.0476 20.149 68.4664 20.1436 67.9645 20.4782C67.4626 20.8128 67.2301 21.3607 67.4451 21.7018C67.6602 22.043 68.2415 22.0484 68.7434 21.7138Z" fill="white"/>
<path d="M64.3481 22.5162C64.6085 22.9292 64.3677 23.5653 63.8103 23.9369C63.2529 24.3085 62.5899 24.2749 62.3296 23.8619C62.0692 23.4488 62.31 22.8128 62.8674 22.4412C63.4248 22.0696 64.0877 22.1032 64.3481 22.5162Z" fill="white"/>
<path d="M67.1455 25.7591C67.5678 25.4776 67.7403 24.9799 67.5308 24.6476C67.3213 24.3153 66.8092 24.2741 66.3869 24.5557C65.9646 24.8372 65.7921 25.3348 66.0016 25.6671C66.2111 25.9994 66.7232 26.0406 67.1455 25.7591Z" fill="white"/>
<path d="M63.4534 28.8052C63.6938 29.1866 63.5193 29.7421 63.0636 30.0459C62.6079 30.3497 62.0435 30.2868 61.8031 29.9054C61.5627 29.524 61.7372 28.9686 62.1929 28.6648C62.6486 28.361 63.213 28.4238 63.4534 28.8052Z" fill="white"/>
<path d="M66.759 35.3857C67.2483 35.0594 67.4702 34.5176 67.2545 34.1754C67.0388 33.8333 66.4673 33.8204 65.9779 34.1466C65.4885 34.4729 65.2667 35.0147 65.4824 35.3569C65.6981 35.699 66.2696 35.7119 66.759 35.3857Z" fill="white"/>
<path d="M72.2236 33.4205C72.4717 33.814 72.1807 34.461 71.5738 34.8656C70.9669 35.2702 70.2738 35.2792 70.0258 34.8858C69.7777 34.4923 70.0687 33.8453 70.6756 33.4407C71.2825 33.0361 71.9756 33.0271 72.2236 33.4205Z" fill="white"/>
<path d="M73.3155 30.0673C73.8605 29.7039 74.1211 29.1216 73.8974 28.7668C73.6736 28.4119 73.0504 28.4188 72.5053 28.7822C71.9602 29.1456 71.6997 29.7278 71.9234 30.0827C72.1471 30.4376 72.7704 30.4307 73.3155 30.0673Z" fill="white"/>
<path d="M10.85 61.6384V49.0384H16.61C17.762 49.0384 18.752 49.2244 19.58 49.5964C20.42 49.9684 21.068 50.5084 21.524 51.2164C21.98 51.9124 22.208 52.7404 22.208 53.7004C22.208 54.6484 21.98 55.4704 21.524 56.1664C21.068 56.8624 20.42 57.4024 19.58 57.7864C18.752 58.1584 17.762 58.3444 16.61 58.3444H12.83L14.414 56.7964V61.6384H10.85ZM14.414 57.1744L12.83 55.5364H16.394C17.138 55.5364 17.69 55.3744 18.05 55.0504C18.422 54.7264 18.608 54.2764 18.608 53.7004C18.608 53.1124 18.422 52.6564 18.05 52.3324C17.69 52.0084 17.138 51.8464 16.394 51.8464H12.83L14.414 50.2084V57.1744ZM26.2963 61.6384V51.0724L27.0883 51.8644H22.4263V49.0384H33.6583V51.8644H29.0143L29.8063 51.0724V61.6384H26.2963ZM43.2035 56.5984V53.9704H49.1435V56.5984H43.2035ZM44.8955 48.7864C45.8675 48.7864 46.7555 48.9484 47.5595 49.2724C48.3635 49.5844 49.0595 50.0344 49.6475 50.6224C50.2475 51.2104 50.7095 51.9064 51.0335 52.7104C51.3695 53.5024 51.5375 54.3784 51.5375 55.3384C51.5375 56.2984 51.3695 57.1804 51.0335 57.9844C50.7095 58.7764 50.2475 59.4664 49.6475 60.0544C49.0595 60.6424 48.3635 61.0984 47.5595 61.4224C46.7555 61.7344 45.8675 61.8904 44.8955 61.8904C43.7195 61.8904 42.6695 61.6864 41.7455 61.2784C40.8215 60.8584 40.0535 60.2704 39.4415 59.5144L41.6915 57.4624C42.0995 57.9424 42.5495 58.3084 43.0415 58.5604C43.5455 58.8124 44.1035 58.9384 44.7155 58.9384C45.1955 58.9384 45.6335 58.8544 46.0295 58.6864C46.4255 58.5184 46.7615 58.2784 47.0375 57.9664C47.3255 57.6424 47.5415 57.2584 47.6855 56.8144C47.8415 56.3704 47.9195 55.8784 47.9195 55.3384C47.9195 54.7984 47.8415 54.3064 47.6855 53.8624C47.5415 53.4184 47.3255 53.0404 47.0375 52.7284C46.7615 52.4044 46.4255 52.1584 46.0295 51.9904C45.6335 51.8224 45.1955 51.7384 44.7155 51.7384C44.1035 51.7384 43.5455 51.8644 43.0415 52.1164C42.5495 52.3684 42.0995 52.7344 41.6915 53.2144L39.4415 51.1624C40.0535 50.3944 40.8215 49.8064 41.7455 49.3984C42.6695 48.9904 43.7195 48.7864 44.8955 48.7864ZM61.4154 61.6384L57.8694 55.6444L60.7314 53.9524L65.4294 61.6384H61.4154ZM53.3874 61.6384V49.0384H56.9334V61.6384H53.3874ZM55.9074 56.8144V53.9344H60.4794V56.8144H55.9074ZM61.0734 55.7164L57.7794 55.3564L61.6494 49.0384H65.3934L61.0734 55.7164ZM72.6403 61.8904C71.6443 61.8904 70.7203 61.7344 69.8683 61.4224C69.0283 61.0984 68.2963 60.6424 67.6723 60.0544C67.0603 59.4664 66.5803 58.7764 66.2323 57.9844C65.8843 57.1804 65.7103 56.2984 65.7103 55.3384C65.7103 54.3784 65.8843 53.5024 66.2323 52.7104C66.5803 51.9064 67.0603 51.2104 67.6723 50.6224C68.2963 50.0344 69.0283 49.5844 69.8683 49.2724C70.7203 48.9484 71.6443 48.7864 72.6403 48.7864C73.8043 48.7864 74.8423 48.9904 75.7543 49.3984C76.6783 49.8064 77.4463 50.3944 78.0583 51.1624L75.7903 53.2144C75.3823 52.7344 74.9323 52.3684 74.4403 52.1164C73.9603 51.8644 73.4203 51.7384 72.8203 51.7384C72.3043 51.7384 71.8303 51.8224 71.3983 51.9904C70.9663 52.1584 70.5943 52.4044 70.2823 52.7284C69.9823 53.0404 69.7423 53.4184 69.5623 53.8624C69.3943 54.3064 69.3103 54.7984 69.3103 55.3384C69.3103 55.8784 69.3943 56.3704 69.5623 56.8144C69.7423 57.2584 69.9823 57.6424 70.2823 57.9664C70.5943 58.2784 70.9663 58.5184 71.3983 58.6864C71.8303 58.8544 72.3043 58.9384 72.8203 58.9384C73.4203 58.9384 73.9603 58.8124 74.4403 58.5604C74.9323 58.3084 75.3823 57.9424 75.7903 57.4624L78.0583 59.5144C77.4463 60.2704 76.6783 60.8584 75.7543 61.2784C74.8423 61.6864 73.8043 61.8904 72.6403 61.8904ZM79.6684 61.6384V49.0384H91.4944V61.6384H87.9664V51.0724L88.7584 51.8644H82.4044L83.1784 51.0724V61.6384H79.6684ZM94.1879 61.6384V49.0384H99.9479C101.1 49.0384 102.09 49.2244 102.918 49.5964C103.758 49.9684 104.406 50.5084 104.862 51.2164C105.318 51.9124 105.546 52.7404 105.546 53.7004C105.546 54.6484 105.318 55.4704 104.862 56.1664C104.406 56.8624 103.758 57.4024 102.918 57.7864C102.09 58.1584 101.1 58.3444 99.9479 58.3444H96.1679L97.7519 56.7964V61.6384H94.1879ZM97.7519 57.1744L96.1679 55.5364H99.7319C100.476 55.5364 101.028 55.3744 101.388 55.0504C101.76 54.7264 101.946 54.2764 101.946 53.7004C101.946 53.1124 101.76 52.6564 101.388 52.3324C101.028 52.0084 100.476 51.8464 99.7319 51.8464H96.1679L97.7519 50.2084V57.1744ZM110.437 53.9164H116.287V56.5804H110.437V53.9164ZM110.689 58.8844H117.277V61.6384H107.161V49.0384H117.043V51.7924H110.689V58.8844ZM125.445 61.8904C124.449 61.8904 123.525 61.7344 122.673 61.4224C121.833 61.0984 121.101 60.6424 120.477 60.0544C119.865 59.4664 119.385 58.7764 119.037 57.9844C118.689 57.1804 118.515 56.2984 118.515 55.3384C118.515 54.3784 118.689 53.5024 119.037 52.7104C119.385 51.9064 119.865 51.2104 120.477 50.6224C121.101 50.0344 121.833 49.5844 122.673 49.2724C123.525 48.9484 124.449 48.7864 125.445 48.7864C126.609 48.7864 127.647 48.9904 128.559 49.3984C129.483 49.8064 130.251 50.3944 130.863 51.1624L128.595 53.2144C128.187 52.7344 127.737 52.3684 127.245 52.1164C126.765 51.8644 126.225 51.7384 125.625 51.7384C125.109 51.7384 124.635 51.8224 124.203 51.9904C123.771 52.1584 123.399 52.4044 123.087 52.7284C122.787 53.0404 122.547 53.4184 122.367 53.8624C122.199 54.3064 122.115 54.7984 122.115 55.3384C122.115 55.8784 122.199 56.3704 122.367 56.8144C122.547 57.2584 122.787 57.6424 123.087 57.9664C123.399 58.2784 123.771 58.5184 124.203 58.6864C124.635 58.8544 125.109 58.9384 125.625 58.9384C126.225 58.9384 126.765 58.8124 127.245 58.5604C127.737 58.3084 128.187 57.9424 128.595 57.4624L130.863 59.5144C130.251 60.2704 129.483 60.8584 128.559 61.2784C127.647 61.6864 126.609 61.8904 125.445 61.8904ZM138.347 61.8904C137.351 61.8904 136.427 61.7344 135.575 61.4224C134.735 61.0984 134.003 60.6424 133.379 60.0544C132.767 59.4664 132.287 58.7764 131.939 57.9844C131.591 57.1804 131.417 56.2984 131.417 55.3384C131.417 54.3784 131.591 53.5024 131.939 52.7104C132.287 51.9064 132.767 51.2104 133.379 50.6224C134.003 50.0344 134.735 49.5844 135.575 49.2724C136.427 48.9484 137.351 48.7864 138.347 48.7864C139.511 48.7864 140.549 48.9904 141.461 49.3984C142.385 49.8064 143.153 50.3944 143.765 51.1624L141.497 53.2144C141.089 52.7344 140.639 52.3684 140.147 52.1164C139.667 51.8644 139.127 51.7384 138.527 51.7384C138.011 51.7384 137.537 51.8224 137.105 51.9904C136.673 52.1584 136.301 52.4044 135.989 52.7284C135.689 53.0404 135.449 53.4184 135.269 53.8624C135.101 54.3064 135.017 54.7984 135.017 55.3384C135.017 55.8784 135.101 56.3704 135.269 56.8144C135.449 57.2584 135.689 57.6424 135.989 57.9664C136.301 58.2784 136.673 58.5184 137.105 58.6864C137.537 58.8544 138.011 58.9384 138.527 58.9384C139.127 58.9384 139.667 58.8124 140.147 58.5604C140.639 58.3084 141.089 57.9424 141.497 57.4624L143.765 59.5144C143.153 60.2704 142.385 60.8584 141.461 61.2784C140.549 61.6864 139.511 61.8904 138.347 61.8904Z" fill="white"/>
</svg>

<svg xmlns="http://www.w3.org/2000/svg" width="154" height="70" fill="none"><rect width="22.5" height="23.529" x="65.3" y="11.646" fill="#0C6" opacity=".5" rx="11.25"/><path fill="#fff" d="M60.044 37.866c2.54-3.202 9.265-9.963 15.833-11.39-.87 2.624-2.409 8.978-1.594 13.405 1.524-3.512 7.312-11.604 18.265-15.868 1.305-.894 3.505-4.543 1.872-11.983-.2-.197-1.602-.82-5.62-1.746-.537-.193-1.95-.87-3.299-2.034-1.687-1.456-12.2 1.74-14.617 3.645-1.747-.325-5.52-.404-6.638 1.883-1.119 2.287.043 3.265.764 3.468-1.922 1.298-5.814 4.236-6.01 5.604 2.24-1.541 7.449-4.673 10.37-4.87-.874-1.396-1.7-4.188 1.988-4.198 3.28-1.85 10.487-5.332 13.061-4.47 1.124.65 3.48 1.954 3.92 1.978.55.031 3.157.36 3.184.679.012.138-.179.325-.388.53-.273.27-.579.57-.512.836.049.194.552.494 1.135.842.84.502 1.844 1.101 1.888 1.62.016.186.062.388.109.599.176.78.378 1.68-.795 2.355-.17.098-.349.207-.534.32-1.44.876-3.25 1.978-3.992-.234-.423-1.262-.436-2.396-.447-3.335-.011-.92-.02-1.652-.409-2.134-.786-.974-2.736-1.844-4.253-1.305-1.214.43-2.756 1.292-3.375 1.67.784.33 2.412.972 2.655.886.058-.02.203-.13.405-.283.84-.639 2.675-2.03 3.405-.863.904 1.445 1.087 1.75.484 2.93-.109.212-.252.46-.408.732-.712 1.238-1.69 2.94-.854 3.722 1.019.953 3.879 1.5 5.645.216a64.918 64.918 0 0 0 2.643-2.006c-.127 1.27-.798 3.849-2.473 4-2.094.188-8.973 2.012-9.913 2.9-.01-1.338.173-4.388.984-5.875-4.893.654-16.24 5.125-22.48 17.774Z"/><path fill="#fff" d="M78.777 14.642c-1.107.769-3.567 3.085-4.552 6.196 2.181-1 6.973-2.91 8.692-2.55-1.183-.43-3.94-1.124-5.51-.469-.009-.401.254-1.598 1.37-3.177Zm-5.674 2.433c.375-.25.539-.675.366-.95-.173-.273-.617-.293-.992-.043s-.54.675-.366.95c.173.274.617.293.992.043Zm-.471 3.342c.16.255-.013.665-.389.915-.375.25-.809.246-.97-.01-.16-.254.013-.663.388-.913.376-.25.81-.246.97.008Zm-3.889 1.297c.502-.335.735-.883.52-1.224-.215-.341-.797-.346-1.299-.012-.501.335-.734.883-.519 1.224.215.341.797.346 1.298.012Zm-4.395.802c.26.413.02 1.05-.538 1.42-.557.372-1.22.339-1.48-.074-.26-.413-.02-1.05.537-1.42.558-.372 1.22-.339 1.481.074Zm2.797 3.244c.423-.282.595-.78.386-1.112-.21-.333-.722-.374-1.144-.092-.422.281-.595.779-.385 1.111.21.332.721.374 1.144.092Zm-3.692 3.045c.24.382.066.937-.39 1.24-.455.305-1.02.242-1.26-.14-.24-.381-.066-.936.39-1.24.456-.304 1.02-.241 1.26.14Zm3.306 6.581c.49-.327.711-.868.495-1.21-.215-.343-.787-.356-1.276-.03-.49.327-.711.869-.496 1.21.216.343.788.356 1.277.03Zm5.465-1.966c.248.394-.043 1.041-.65 1.446-.607.404-1.3.413-1.548.02-.248-.394.043-1.04.65-1.445.606-.405 1.3-.414 1.548-.02Zm1.092-3.353c.544-.363.805-.945.581-1.3-.223-.355-.847-.348-1.392.015-.545.364-.805.946-.582 1.3.224.356.847.349 1.392-.015ZM10.85 61.638v-12.6h5.76c1.152 0 2.142.186 2.97.558.84.372 1.488.912 1.944 1.62.456.696.684 1.524.684 2.484 0 .948-.228 1.77-.684 2.466-.456.696-1.104 1.236-1.944 1.62-.828.372-1.818.558-2.97.558h-3.78l1.584-1.548v4.842H10.85Zm3.564-4.464-1.584-1.638h3.564c.744 0 1.296-.162 1.656-.486.372-.324.558-.774.558-1.35 0-.588-.186-1.044-.558-1.368-.36-.324-.912-.486-1.656-.486H12.83l1.584-1.638v6.966Zm11.882 4.464V51.072l.792.792h-4.662v-2.826h11.232v2.826h-4.644l.792-.792v10.566h-3.51Zm16.907-5.04V53.97h5.94v2.628h-5.94Zm1.692-7.812c.972 0 1.86.162 2.664.486.805.312 1.5.762 2.089 1.35a6.057 6.057 0 0 1 1.385 2.088c.337.792.505 1.668.505 2.628 0 .96-.168 1.842-.505 2.646a6.098 6.098 0 0 1-1.386 2.07 6.186 6.186 0 0 1-2.087 1.368c-.805.312-1.693.468-2.665.468-1.176 0-2.226-.204-3.15-.612a6.234 6.234 0 0 1-2.303-1.764l2.25-2.052c.407.48.858.846 1.35 1.098a3.69 3.69 0 0 0 1.673.378c.48 0 .918-.084 1.314-.252a2.771 2.771 0 0 0 1.008-.72c.288-.324.505-.708.648-1.152.157-.444.234-.936.234-1.476 0-.54-.077-1.032-.233-1.476a3.019 3.019 0 0 0-.648-1.134 2.68 2.68 0 0 0-1.008-.738 3.331 3.331 0 0 0-1.315-.252 3.69 3.69 0 0 0-1.674.378 4.429 4.429 0 0 0-1.35 1.098l-2.25-2.052a5.991 5.991 0 0 1 2.304-1.764c.925-.408 1.974-.612 3.15-.612Zm16.52 12.852-3.546-5.994 2.862-1.692 4.698 7.686h-4.014Zm-8.028 0v-12.6h3.546v12.6h-3.546Zm2.52-4.824v-2.88h4.572v2.88h-4.572Zm5.166-1.098-3.294-.36 3.87-6.318h3.744l-4.32 6.678ZM72.64 61.89c-.996 0-1.92-.156-2.772-.468a6.658 6.658 0 0 1-2.196-1.368 6.423 6.423 0 0 1-1.44-2.07c-.348-.804-.522-1.686-.522-2.646s.174-1.836.522-2.628c.348-.804.828-1.5 1.44-2.088a6.425 6.425 0 0 1 2.196-1.35 7.735 7.735 0 0 1 2.772-.486c1.164 0 2.202.204 3.114.612a5.991 5.991 0 0 1 2.304 1.764l-2.268 2.052a4.429 4.429 0 0 0-1.35-1.098 3.432 3.432 0 0 0-1.62-.378c-.516 0-.99.084-1.422.252a3.076 3.076 0 0 0-1.116.738c-.3.312-.54.69-.72 1.134a4.141 4.141 0 0 0-.252 1.476c0 .54.084 1.032.252 1.476.18.444.42.828.72 1.152.312.312.684.552 1.116.72.432.168.906.252 1.422.252.6 0 1.14-.126 1.62-.378a4.429 4.429 0 0 0 1.35-1.098l2.268 2.052a6.234 6.234 0 0 1-2.304 1.764c-.912.408-1.95.612-3.114.612Zm7.028-.252v-12.6h11.826v12.6h-3.528V51.072l.792.792h-6.354l.774-.792v10.566h-3.51Zm14.52 0v-12.6h5.76c1.152 0 2.142.186 2.97.558.84.372 1.488.912 1.944 1.62.456.696.684 1.524.684 2.484 0 .948-.228 1.77-.684 2.466-.456.696-1.104 1.236-1.944 1.62-.828.372-1.818.558-2.97.558h-3.78l1.584-1.548v4.842h-3.564Zm3.564-4.464-1.584-1.638h3.564c.744 0 1.296-.162 1.656-.486.372-.324.558-.774.558-1.35 0-.588-.186-1.044-.558-1.368-.36-.324-.912-.486-1.656-.486h-3.564l1.584-1.638v6.966Zm12.685-3.258h5.85v2.664h-5.85v-2.664Zm.252 4.968h6.588v2.754h-10.116v-12.6h9.882v2.754h-6.354v7.092Zm14.756 3.006c-.996 0-1.92-.156-2.772-.468a6.658 6.658 0 0 1-2.196-1.368 6.423 6.423 0 0 1-1.44-2.07c-.348-.804-.522-1.686-.522-2.646s.174-1.836.522-2.628c.348-.804.828-1.5 1.44-2.088a6.425 6.425 0 0 1 2.196-1.35 7.735 7.735 0 0 1 2.772-.486c1.164 0 2.202.204 3.114.612a5.991 5.991 0 0 1 2.304 1.764l-2.268 2.052a4.429 4.429 0 0 0-1.35-1.098 3.432 3.432 0 0 0-1.62-.378c-.516 0-.99.084-1.422.252a3.076 3.076 0 0 0-1.116.738c-.3.312-.54.69-.72 1.134a4.141 4.141 0 0 0-.252 1.476c0 .54.084 1.032.252 1.476.18.444.42.828.72 1.152.312.312.684.552 1.116.72.432.168.906.252 1.422.252.6 0 1.14-.126 1.62-.378a4.429 4.429 0 0 0 1.35-1.098l2.268 2.052a6.234 6.234 0 0 1-2.304 1.764c-.912.408-1.95.612-3.114.612Zm12.902 0c-.996 0-1.92-.156-2.772-.468a6.658 6.658 0 0 1-2.196-1.368 6.423 6.423 0 0 1-1.44-2.07c-.348-.804-.522-1.686-.522-2.646s.174-1.836.522-2.628c.348-.804.828-1.5 1.44-2.088a6.425 6.425 0 0 1 2.196-1.35 7.735 7.735 0 0 1 2.772-.486c1.164 0 2.202.204 3.114.612a5.991 5.991 0 0 1 2.304 1.764l-2.268 2.052a4.429 4.429 0 0 0-1.35-1.098 3.432 3.432 0 0 0-1.62-.378c-.516 0-.99.084-1.422.252a3.076 3.076 0 0 0-1.116.738c-.3.312-.54.69-.72 1.134a4.141 4.141 0 0 0-.252 1.476c0 .54.084 1.032.252 1.476.18.444.42.828.72 1.152.312.312.684.552 1.116.72.432.168.906.252 1.422.252.6 0 1.14-.126 1.62-.378a4.429 4.429 0 0 0 1.35-1.098l2.268 2.052a6.234 6.234 0 0 1-2.304 1.764c-.912.408-1.95.612-3.114.612Z"/></svg>
